images/user.svg

<svg width="21" height="24" viewBox="0 0 21 24" fill="none" xmlns="http://www.w3.org/2000/svg">
<path d="M14.7 14.25C13.3547 14.25 12.7078 15 10.5 15C8.29219 15 7.65 14.25 6.3 14.25C2.82187 14.25 0 17.0719 0 20.55V21.75C0 22.9922 1.00781 24 2.25 24H18.75C19.9922 24 21 22.9922 21 21.75V20.55C21 17.0719 18.1781 14.25 14.7 14.25ZM18.75 21.75H2.25V20.55C2.25 18.3188 4.06875 16.5 6.3 16.5C6.98437 16.5 8.09531 17.25 10.5 17.25C12.9234 17.25 14.0109 16.5 14.7 16.5C16.9312 16.5 18.75 18.3188 18.75 20.55V21.75ZM10.5 13.5C14.2266 13.5 17.25 10.4766 17.25 6.75C17.25 3.02344 14.2266 0 10.5 0C6.77344 0 3.75 3.02344 3.75 6.75C3.75 10.4766 6.77344 13.5 10.5 13.5ZM10.5 2.25C12.9797 2.25 15 4.27031 15 6.75C15 9.22969 12.9797 11.25 10.5 11.25C8.02031 11.25 6 9.22969 6 6.75C6 4.27031 8.02031 2.25 10.5 2.25Z" fill="#403148"/>
</svg>

<svg width="21" height="24" fill="none" xmlns="http://www.w3.org/2000/svg"><path d="M14.7 14.25c-1.345 0-1.992.75-4.2.75s-2.85-.75-4.2-.75a6.302 6.302 0 0 0-6.3 6.3v1.2A2.25 2.25 0 0 0 2.25 24h16.5A2.25 2.25 0 0 0 21 21.75v-1.2c0-3.478-2.822-6.3-6.3-6.3zm4.05 7.5H2.25v-1.2A4.057 4.057 0 0 1 6.3 16.5c.684 0 1.795.75 4.2.75 2.423 0 3.51-.75 4.2-.75a4.057 4.057 0 0 1 4.05 4.05v1.2zM10.5 13.5a6.752 6.752 0 0 0 6.75-6.75A6.752 6.752 0 0 0 10.5 0a6.752 6.752 0 0 0-6.75 6.75 6.752 6.752 0 0 0 6.75 6.75zm0-11.25c2.48 0 4.5 2.02 4.5 4.5s-2.02 4.5-4.5 4.5S6 9.23 6 6.75s2.02-4.5 4.5-4.5z" fill="#403148"/></svg>
